X:5
T:Schiltgrat-Juiz  Bb  ABAC
T:Alois Gabriel (28.10.1950)
T:Dirigenten-Notiz  Edi Gasser
C:Unterwalden (CH)
%%partsbox
P:ABAC
R:Naturjodel
M:3/4
L:1/4
K:Bb 
[P:A] "feierlich" F/F/ | d>F d/f/ | c fd/c/ | B>cd | F2B/d/ |  g2=e | f2e | d>c B/d/ | 
F2f | d>f d/f/ | cfd/c/ | B>cd | F2B/d/ | g2=e | f2e | (B3 | B2) || 
L:1/4
M:3/4
[P:B] "fröhlich, nicht zu schnell" d | c2d | ef/c/ e/A/ | B>cd | F>=E F/d/ | c>F A/c/ | f2e | d>c B/G/ | 
F2d | c2d | ef/c/ e/A/ | B>cd | F>=E F/d/ | c>F A/c/ | f>e d/c/ | (B3 | B2) || 
L:1/4
M:3/4
[P:C] "schwungvoll"  F|G2B | e2f/e/ | d2B/d/ | Ffd | c2A/c/ | Ffe | d>c  B/d/ | F2F | 
G/G/ G/F/ E/F/ | Ge/c/ f/e/ | d/d/ d/c/ B/d/ | Fz/ =E/ F/_G/ | Gc/B/ A/G/ | Ffd/c/ | 
!breath! !fermata!B2F | G2B | e2f/e/ | d2B/d/ | Ffd | c2A/c/ | Ffe | d>c B/d/ | F2F | G/G/ G/F/ E/F/ | 
Ge/c/ f/e/ | d/d/ d/c/ B/d/ | Fz/=E/ F/_G/ | Gc/B/ A/G/ | Ffd/c/ | !fermata!B2 |]
W:
%W:Reihenfolge: A - B - A - C
W: gewidmet Ernst Agner zum 60. Geburtstag - 16.02.1989
W:
W:notiert Edi Gasser. Angaben Alois Gabriel
W:UJV-Naturjodelsammlung: Code-Nr: 38-03
W:http://www.naturjodler.ch/code 38.htm  (with AUDIO)
%Juni 7, 2018

